assets/compare/payments.svg

<svg width="28" height="29" viewBox="0 0 28 29" fill="none" xmlns="http://www.w3.org/2000/svg">
<path d="M13.9997 26.5669C7.55617 26.5669 2.33301 21.3437 2.33301 14.9002C2.33301 8.45669 7.55617 3.23352 13.9997 3.23352C20.4432 3.23352 25.6663 8.45669 25.6663 14.9002C25.6663 21.3437 20.4432 26.5669 13.9997 26.5669ZM11.328 23.845C10.177 21.4036 9.51019 18.7621 9.36451 16.0669H4.73867C4.96569 17.8622 5.70925 19.553 6.879 20.9338C8.04876 22.3146 9.59436 23.326 11.328 23.845V23.845ZM11.7013 16.0669C11.8775 18.9124 12.6907 21.5852 13.9997 23.9442C15.344 21.5228 16.1294 18.8312 16.298 16.0669H11.7013V16.0669ZM23.2607 16.0669H18.6348C18.4892 18.7621 17.8224 21.4036 16.6713 23.845C18.405 23.326 19.9506 22.3146 21.1203 20.9338C22.2901 19.553 23.0337 17.8622 23.2607 16.0669V16.0669ZM4.73867 13.7335H9.36451C9.51019 11.0383 10.177 8.39682 11.328 5.95535C9.59436 6.47438 8.04876 7.48573 6.879 8.86653C5.70925 10.2473 4.96569 11.9381 4.73867 13.7335V13.7335ZM11.7025 13.7335H16.2968C16.1286 10.9692 15.3436 8.27764 13.9997 5.85619C12.6553 8.27754 11.87 10.9691 11.7013 13.7335H11.7025ZM16.6713 5.95535C17.8224 8.39682 18.4892 11.0383 18.6348 13.7335H23.2607C23.0337 11.9381 22.2901 10.2473 21.1203 8.86653C19.9506 7.48573 18.405 6.47438 16.6713 5.95535V5.95535Z" fill="#5BB5A2"/>
</svg>

<svg xmlns="http://www.w3.org/2000/svg" width="28" height="29" fill="none"><path fill="#5BB5A2" d="M14 26.567c-6.444 0-11.667-5.223-11.667-11.667C2.333 8.457 7.556 3.234 14 3.234c6.443 0 11.666 5.223 11.666 11.666 0 6.444-5.223 11.667-11.666 11.667Zm-2.672-2.722a20.883 20.883 0 0 1-1.963-7.778H4.739a9.343 9.343 0 0 0 6.589 7.778Zm.373-7.778c.176 2.845.99 5.518 2.299 7.877a18.557 18.557 0 0 0 2.298-7.877h-4.597Zm11.56 0h-4.626a20.88 20.88 0 0 1-1.964 7.778 9.342 9.342 0 0 0 6.59-7.778ZM4.739 13.733h4.626a20.884 20.884 0 0 1 1.963-7.778 9.343 9.343 0 0 0-6.59 7.778Zm6.964 0h4.594A18.555 18.555 0 0 0 14 5.856a18.556 18.556 0 0 0-2.299 7.877h.002Zm4.968-7.778a20.88 20.88 0 0 1 1.964 7.778h4.626a9.342 9.342 0 0 0-6.59-7.778Z"/></svg>
